X: 6560
T: Catherine McEvoy's
R: reel
M: 4/4
K: Gmajor
~G3B dgge|dGAG GEDz|~G3B dgge|dBAE ~A3B|
GzGB dgge|dGAG GEDz|1 ~g3d egge|dBAD ~G3z:|2 g2eg dege|dBAD ~G3z||
|:~g3a b2ag|~g2fg edBd|~g3a baaf|gage ~a3z|
[1~g3a b2ag|~g2fg egdz|GDGB dege|dGAD ~G3z:|
[2gbag egge|dBBz AGEG|DG~G2 DEGE|DEAG GEDE||

